fs/document_bullet_list_clock_20_filled.svg

<svg viewBox="0 0 20 20" fill="none" xmlns="http://www.w3.org/2000/svg" height="1em" width="1em">
  <path d="M10 6.5V2H5.5C4.67157 2 4 2.67157 4 3.5V16.5C4 17.3284 4.67157 18 5.5 18H10.2572C9.57137 17.1696 9.12465 16.1345 9.02242 15H8.5C8.22386 15 8 14.7761 8 14.5C8 14.2239 8.22386 14 8.5 14H9.02242C9.05337 13.6566 9.11588 13.3223 9.20703 13H8.5C8.22386 13 8 12.7761 8 12.5C8 12.2239 8.22386 12 8.5 12H9.59971C9.78261 11.6422 10.0035 11.3071 10.2572 11H8.5C8.22386 11 8 10.7761 8 10.5C8 10.2239 8.22386 10 8.5 10H11.3369C12.2316 9.36997 13.3226 9 14.5 9C15.02 9 15.5232 9.07217 16 9.20703V8H11.5C10.6716 8 10 7.32843 10 6.5ZM6 10.5C6 10.2239 6.22386 10 6.5 10C6.77614 10 7 10.2239 7 10.5C7 10.7761 6.77614 11 6.5 11C6.22386 11 6 10.7761 6 10.5ZM6 12.5C6 12.2239 6.22386 12 6.5 12C6.77614 12 7 12.2239 7 12.5C7 12.7761 6.77614 13 6.5 13C6.22386 13 6 12.7761 6 12.5ZM6.5 14C6.77614 14 7 14.2239 7 14.5C7 14.7761 6.77614 15 6.5 15C6.22386 15 6 14.7761 6 14.5C6 14.2239 6.22386 14 6.5 14Z" fill="#212121"/>
  <path d="M11 6.5V2.25L15.75 7H11.5C11.2239 7 11 6.77614 11 6.5Z" fill="#212121"/>
  <path d="M19 14.5C19 16.9853 16.9853 19 14.5 19C12.0147 19 10 16.9853 10 14.5C10 12.0147 12.0147 10 14.5 10C16.9853 10 19 12.0147 19 14.5ZM15 11.5C15 11.2239 14.7761 11 14.5 11C14.2239 11 14 11.2239 14 11.5V14.5C14 14.7761 14.2239 15 14.5 15H16.5C16.7761 15 17 14.7761 17 14.5C17 14.2239 16.7761 14 16.5 14H15V11.5Z" fill="#212121"/>
</svg>

<svg viewBox="0 0 20 20" fill="none" xmlns="http://www.w3.org/2000/svg" height="1em" width="1em">
  <path d="M10 6.5V2H5.5A1.5 1.5 0 0 0 4 3.5v13A1.5 1.5 0 0 0 5.5 18h4.757a5.475 5.475 0 0 1-1.235-3H8.5a.5.5 0 0 1 0-1h.522a5.48 5.48 0 0 1 .185-1H8.5a.5.5 0 0 1 0-1h1.1c.183-.358.404-.693.657-1H8.5a.5.5 0 0 1 0-1h2.837c.895-.63 1.986-1 3.163-1a5.5 5.5 0 0 1 1.5.207V8h-4.5A1.5 1.5 0 0 1 10 6.5Zm-4 4a.5.5 0 1 1 1 0 .5.5 0 0 1-1 0Zm0 2a.5.5 0 1 1 1 0 .5.5 0 0 1-1 0Zm.5 1.5a.5.5 0 1 1 0 1 .5.5 0 0 1 0-1Z" fill="#212121"/>
  <path d="M11 6.5V2.25L15.75 7H11.5a.5.5 0 0 1-.5-.5Zm8 8a4.5 4.5 0 1 1-9 0 4.5 4.5 0 0 1 9 0Zm-4-3a.5.5 0 0 0-1 0v3a.5.5 0 0 0 .5.5h2a.5.5 0 0 0 0-1H15v-2.5Z" fill="#212121"/>
</svg>
